!!!COM: Bach, Johann Sebastian
!!!CDT: 1685/3//-1750/7/28/
!!!OTL@@DE: O Haupt voll Blut und Wunden
!!!AGN: 4-Part Chorale
!!!SCT: BH 098
!!!SCT: BWV 244
**harm	**root	**kern	**kern	**kern	**kern
!	!	!bass	!tenor	!alto	!soprno
*	*Iorgan	*Iorgan	*Iorgan	*Iorgan	*Iorgan
*	*	*clefF4	*clefF4	*clefG2	*clefG2
*M4/4	*M4/4	*M4/4	*M4/4	*M4/4	*M4/4
*met(c)	*met(c)	*met(c)	*met(c)	*met(c)	*met(c)
*MM60	*MM60	*MM60	*MM60	*MM60	*MM60
*k[f#]	*k[f#]	*k[f#]	*k[f#]	*k[f#]	*k[f#]
*G:	*G:	*G:	*G:	*G:	*G:
*>[A,A,B]	*>[A,A,B]	*>[A,A,B]	*>[A,A,B]	*>[A,A,B]	*>[A,A,B]
*>A	*>A	*>A	*>A	*>A	*>A
I	4DD	4G	4d	4g	4b
=1	=1	=1	=1	=1	=1
IV	4GG	4c	4c	4g	4ee
Ib	4DD	4B	4d	4g	4dd
IVb	8GG	8E	8e	8g	4cc
V7b	8AA	8F#	8d	8a	.
I	4DD	4G	4d	8a	4b
.	.	.	.	8g	.
=2	=2	=2	=2	=2	=2
ii7b	4EE	4C	4e	4g	2a
V	4AA	4D	4d	4f#	.
I;	4DD;	4G;	4d;	4g;	4b;
viib/vi	4AA#	4F#	4d#	4a	4ff#
=3	=3	=3	=3	=3	=3
vi	4BB	8E	4B	8g	4gg
.	.	8F#	.	8a	.
vib	4BB	8G	4e	4b	4gg
.	.	8A	.	.	.
V/vi	4FF#	4B	4e	4b	8ff#
.	.	.	.	.	8ee
V/vi	4FF#	4BB	4d#	8b	4ff#
.	.	.	.	8a	.
=4	=4	=4	=4	=4	=4
vi;	2.BB;	2.E;	2.e;	2.g;	2.ee;
=:|!	=:|!	=:|!	=:|!	=:|!	=:|!
*>B	*>B	*>B	*>B	*>B	*>B
vi	4BB	4e	4b	8ee	4gg
.	.	.	.	8dd	.
=5	=5	=5	=5	=5	=5
viib	4CC#	4A	8a	4cc	8ff#
.	.	.	8g	.	8ee
iii	4FF#	4B	4f#	8b	4dd
.	.	.	.	8a	.
IV	4GG	8c	8e	4g	4ee
.	.	8B	8d	.	.
viib	4CC#	4A	8c	4cc	4ff#
.	.	.	8d	.	.
!!linebreak: 2
=6	=6	=6	=6	=6	=6
IVc	4GG	2G	4e	4cc	2gg
I	4DD	.	8d	8b	.
.	.	.	8c	8a	.
I;	4DD;	4G;	4d;	4b;	4gg;
I	4DD	4G	4g	4b	4dd
=7	=7	=7	=7	=7	=7
IV	4GG	4c	4g	4cc	4ee
I	4DD	4G	8g	4b	4dd
.	.	.	8f#	.	.
ii	4EE	8A	4e	4b	4cc
.	.	8B	.	.	.
iib	4EE	8c	4e	4a	4cc
.	.	8d	.	.	.
=8	=8	=8	=8	=8	=8
VI;	2.BB;	2.e;	2.e;	2.g#;	2.b;
V7b/V	4EE	4c#	4e	4a	4gg
=9	=9	=9	=9	=9	=9
V	4AA	4d	4d	4a	8ff#
.	.	.	.	.	8gg
Vb	4AA	4F#	8d	4a	4aa
.	.	.	8c#	.	.
Ib	4DD	8B	8d	4b	4gg
.	.	8c#	8e	.	.
V	4AA	4d	8f#	4a	4ff#
.	.	.	8d	.	.
=10	=10	=10	=10	=10	=10
vib	4BB	4G	8B	4b	2ee
.	.	.	8e	.	.
V/V	4EE	4A	4c#	4a	.
V;	4AA;	4D;	4d;	4a;	4ff#;
I	4DD	8G	4d	4g	4b
.	.	8F#	.	.	.
=11	=11	=11	=11	=11	=11
IVb	4GG	4E	4c	8g	4cc
.	.	.	.	8f#	.
Ic	4DD	4D	4d	4g	4b
ii7b	4EE	4C	4e	4g	4a
V	4AA	4D	8A	4f#	4dd
.	.	.	8d	.	.
=12	=12	=12	=12	=12	=12
I;	2.DD;	2.G;	2.d;	2.g;	2.b;
==	==	==	==	==	==
*-	*-	*-	*-	*-	*-
!!chor2scor: -l 2 -s 0.6 -o %b.pmx
!!!YEC: Copyright 1994, David Huron
!!!YEC: Changes/Additions 2001 by Craig Stuart Sapp
!!!YEN: United States of America
!!!SMA: 371 Bach Chorales, edited by Ludwig Erk, C.F. Peters
!!!PDT: 1850, 1865
!!!ONB: Harmony and Root analysis done manually by Craig Sapp
